modules/coreui-icons-free/icons/sort-descending.svg

<!-- Generated by IcoMoon.io -->
<svg version="1.1" xmlns="http://www.w3.org/2000/svg" width="24" height="24" viewBox="0 0 24 24">
<title>sort-descending</title>
<path d="M8.625 13.5h5.625v1.5h-5.625v-1.5z"></path>
<path d="M8.625 10.125h8.625v1.5h-8.625v-1.5z"></path>
<path d="M8.625 6.75h11.625v1.5h-11.625v-1.5z"></path>
<path d="M8.625 3.375h14.625v1.5h-14.625v-1.5z"></path>
<path d="M5.962 20.323v-19.573h-1.5v19.573l-2.432-2.432-1.061 1.061 4.243 4.243 4.243-4.243-1.061-1.061-2.432 2.432z"></path>
</svg>

<svg xmlns="http://www.w3.org/2000/svg" width="24" height="24" viewBox="0 0 24 24"><path d="M8.625 13.5h5.625V15H8.625v-1.5zM8.625 10.125h8.625v1.5H8.625v-1.5zM8.625 6.75H20.25v1.5H8.625v-1.5zM8.625 3.375H23.25v1.5H8.625v-1.5z"/><path d="M5.962 20.323V.75h-1.5v19.573L2.03 17.891.969 18.952l4.243 4.243 4.243-4.243-1.061-1.061-2.432 2.432z"/></svg>
